static/img/kroki/826f686a2d2f02c929dc11141e597bc3.svg

<?xml version="1.0" encoding="us-ascii" standalone="no"?><svg xmlns="http://www.w3.org/2000/svg" xmlns:xlink="http://www.w3.org/1999/xlink" contentStyleType="text/css" height="680px" preserveAspectRatio="none" style="width:300px;height:680px;" version="1.1" viewBox="0 0 300 680" width="300px" zoomAndPan="magnify"><defs/><g><!--class azure_available_service_alias--><g id="elem_azure_available_service_alias"><rect codeLine="22" fill="#3D176E" height="74.0859" id="azure_available_service_alias" rx="2.5" ry="2.5" style="stroke:#000D19;stroke-width:0.5;" width="286" x="7" y="599.54"/><ellipse cx="22" cy="619.4345" fill="#ADD1B2" rx="11" ry="11" style="stroke:#181818;stroke-width:1.0;"/><path d="M24.9688,625.0752 Q24.3906,625.372 23.75,625.5127 Q23.1094,625.6689 22.4063,625.6689 Q19.9063,625.6689 18.5781,624.0283 Q17.2656,622.372 17.2656,619.247 Q17.2656,616.122 18.5781,614.4658 Q19.9063,612.8095 22.4063,612.8095 Q23.1094,612.8095 23.75,612.9658 Q24.4063,613.122 24.9688,613.4189 L24.9688,616.1377 Q24.3438,615.5595 23.75,615.2939 Q23.1563,615.0127 22.5313,615.0127 Q21.1875,615.0127 20.5,616.0908 Q19.8125,617.1533 19.8125,619.247 Q19.8125,621.3408 20.5,622.4189 Q21.1875,623.4814 22.5313,623.4814 Q23.1563,623.4814 23.75,623.2158 Q24.3438,622.9345 24.9688,622.3564 L24.9688,625.0752 Z " fill="#000000"/><text fill="#D9B8FF" font-family="Helvetica" font-size="17" lengthAdjust="spacing" textLength="244" x="41" y="625.3198">azure_available_service_alias</text><line style="stroke:#000D19;stroke-width:0.5;" x1="8" x2="292" y1="639.3291" y2="639.3291"/><text fill="#D9B8FF" font-family="sans-serif" font-size="14" font-weight="bold" lengthAdjust="spacing" textLength="122" x="18" y="661.3242">resource_name</text><text fill="#D9B8FF" font-family="sans-serif" font-size="14" lengthAdjust="spacing" textLength="48" x="140" y="661.3242">: string</text></g><!--class azure_resource--><g id="elem_azure_resource"><rect codeLine="25" fill="#3D176E" height="39.7891" id="azure_resource" rx="2.5" ry="2.5" style="stroke:#000D19;stroke-width:0.5;" width="168" x="66" y="438.76"/><ellipse cx="81" cy="458.6545" fill="#ADD1B2" rx="11" ry="11" style="stroke:#181818;stroke-width:1.0;"/><path d="M83.9688,464.2952 Q83.3906,464.592 82.75,464.7327 Q82.1094,464.8889 81.4063,464.8889 Q78.9063,464.8889 77.5781,463.2483 Q76.2656,461.592 76.2656,458.467 Q76.2656,455.342 77.5781,453.6858 Q78.9063,452.0295 81.4063,452.0295 Q82.1094,452.0295 82.75,452.1858 Q83.4063,452.342 83.9688,452.6389 L83.9688,455.3577 Q83.3438,454.7795 82.75,454.5139 Q82.1563,454.2327 81.5313,454.2327 Q80.1875,454.2327 79.5,455.3108 Q78.8125,456.3733 78.8125,458.467 Q78.8125,460.5608 79.5,461.6389 Q80.1875,462.7014 81.5313,462.7014 Q82.1563,462.7014 82.75,462.4358 Q83.3438,462.1545 83.9688,461.5764 L83.9688,464.2952 Z " fill="#000000"/><text fill="#D9B8FF" font-family="Helvetica" font-size="17" lengthAdjust="spacing" textLength="126" x="100" y="464.5398">azure_resource</text></g><!--class resource--><g id="elem_resource"><rect codeLine="27" fill="#3D176E" height="310.7578" id="resource" rx="2.5" ry="2.5" style="stroke:#000D19;stroke-width:0.5;" width="227" x="36.5" y="7"/><ellipse cx="105.25" cy="26.8945" fill="#ADD1B2" rx="11" ry="11" style="stroke:#181818;stroke-width:1.0;"/><path d="M108.2188,32.5352 Q107.6406,32.832 107,32.9727 Q106.3594,33.1289 105.6563,33.1289 Q103.1563,33.1289 101.8281,31.4883 Q100.5156,29.832 100.5156,26.707 Q100.5156,23.582 101.8281,21.9258 Q103.1563,20.2695 105.6563,20.2695 Q106.3594,20.2695 107,20.4258 Q107.6563,20.582 108.2188,20.8789 L108.2188,23.5977 Q107.5938,23.0195 107,22.7539 Q106.4063,22.4727 105.7813,22.4727 Q104.4375,22.4727 103.75,23.5508 Q103.0625,24.6133 103.0625,26.707 Q103.0625,28.8008 103.75,29.8789 Q104.4375,30.9414 105.7813,30.9414 Q106.4063,30.9414 107,30.6758 Q107.5938,30.3945 108.2188,29.8164 L108.2188,32.5352 Z " fill="#000000"/><text fill="#D9B8FF" font-family="Helvetica" font-size="17" lengthAdjust="spacing" textLength="71" x="130.75" y="32.7798">resource</text><line style="stroke:#000D19;stroke-width:0.5;" x1="37.5" x2="262.5" y1="46.7891" y2="46.7891"/><text fill="#D9B8FF" font-family="sans-serif" font-size="14" font-weight="bold" lengthAdjust="spacing" textLength="29" x="47.5" y="68.7842">age</text><text fill="#D9B8FF" font-family="sans-serif" font-size="14" lengthAdjust="spacing" textLength="66" x="76.5" y="68.7842">: duration</text><text fill="#D9B8FF" font-family="sans-serif" font-size="14" font-weight="bold" lengthAdjust="spacing" textLength="43" x="47.5" y="95.0811">atime</text><text fill="#D9B8FF" font-family="sans-serif" font-size="14" lengthAdjust="spacing" textLength="70" x="90.5" y="95.0811">: datetime</text><text fill="#D9B8FF" font-family="sans-serif" font-size="14" font-weight="bold" lengthAdjust="spacing" textLength="43" x="47.5" y="121.3779">ctime</text><text fill="#D9B8FF" font-family="sans-serif" font-size="14" lengthAdjust="spacing" textLength="70" x="90.5" y="121.3779">: datetime</text><text fill="#D9B8FF" font-family="sans-serif" font-size="14" font-weight="bold" lengthAdjust="spacing" textLength="14" x="47.5" y="147.6748">id</text><text fill="#D9B8FF" font-family="sans-serif" font-size="14" lengthAdjust="spacing" textLength="48" x="61.5" y="147.6748">: string</text><text fill="#D9B8FF" font-family="sans-serif" font-size="14" font-weight="bold" lengthAdjust="spacing" textLength="33" x="47.5" y="173.9717">kind</text><text fill="#D9B8FF" font-family="sans-serif" font-size="14" lengthAdjust="spacing" textLength="48" x="80.5" y="173.9717">: string</text><text fill="#D9B8FF" font-family="sans-serif" font-size="14" font-weight="bold" lengthAdjust="spacing" textLength="90" x="47.5" y="200.2686">last_access</text><text fill="#D9B8FF" font-family="sans-serif" font-size="14" lengthAdjust="spacing" textLength="66" x="137.5" y="200.2686">: duration</text><text fill="#D9B8FF" font-family="sans-serif" font-size="14" font-weight="bold" lengthAdjust="spacing" textLength="90" x="47.5" y="226.5654">last_update</text><text fill="#D9B8FF" font-family="sans-serif" font-size="14" lengthAdjust="spacing" textLength="66" x="137.5" y="226.5654">: duration</text><text fill="#D9B8FF" font-family="sans-serif" font-size="14" font-weight="bold" lengthAdjust="spacing" textLength="48" x="47.5" y="252.8623">mtime</text><text fill="#D9B8FF" font-family="sans-serif" font-size="14" lengthAdjust="spacing" textLength="70" x="95.5" y="252.8623">: datetime</text><text fill="#D9B8FF" font-family="sans-serif" font-size="14" font-weight="bold" lengthAdjust="spacing" textLength="43" x="47.5" y="279.1592">name</text><text fill="#D9B8FF" font-family="sans-serif" font-size="14" lengthAdjust="spacing" textLength="48" x="90.5" y="279.1592">: string</text><text fill="#D9B8FF" font-family="sans-serif" font-size="14" font-weight="bold" lengthAdjust="spacing" textLength="34" x="47.5" y="305.4561">tags</text><text fill="#D9B8FF" font-family="sans-serif" font-size="14" lengthAdjust="spacing" textLength="171" x="81.5" y="305.4561">: dictionary[string, string]</text></g><!--reverse link azure_resource to azure_available_service_alias--><g id="link_azure_resource_azure_available_service_alias"><path codeLine="39" d="M150,496.81 C150,525.67 150,562.78 150,599.37 " fill="none" id="azure_resource-backto-azure_available_service_alias" style="stroke:#FFAF37;stroke-width:2.0;"/><polygon fill="none" points="150,478.81,144,496.81,156,496.81,150,478.81" style="stroke:#FFAF37;stroke-width:2.0;"/></g><!--reverse link resource to azure_resource--><g id="link_resource_azure_resource"><path codeLine="40" d="M150,335.84 C150,384.13 150,413.36 150,438.67 " fill="none" id="resource-backto-azure_resource" style="stroke:#FFAF37;stroke-width:2.0;"/><polygon fill="none" points="150,317.84,144,335.84,156,335.84,150,317.84" style="stroke:#FFAF37;stroke-width:2.0;"/></g><!--SRC=[XP9FQm8n4CNlVeg0jr11AwrQUh52QIzIQc-bo9ZCQd0taKbMqRRVlLdNBJ7hdzlotYypxmsxK18PPYktPHbcCoJRi4kbLq2GiI6HsOnCQeWramIIRYysdursLu4nPCXUC5sZKm9YucEXn5AZjUmsi9v0BETaSYtByOv0Ms-XTW4rIi7QeNEaPhd388mSpFf94fFnq6PNTdhtMCCCIQG3qcwtPMSG8rTNNUpzJqpK3badFDhOEAp5hAtOKnTJ5aGGibQqyizcV0CfbPwpkq1xBpEHHZhI9mkGPbFG2QGsN6CT4XgtNU6erWe7VPdqJiAlvs1HN8x1BYUSmXfK2hCKfnPfhOHNKWMMVJSu9xGc9ozftu_p1p-RVBx6xz64Yl9FAYEGE8Vv_gtC2Pmokb2SAkT9S5XyUqsSq9GCbdBkAnuBVfURWX3-juysx9ryLSoAdEp4dgWUvmxcvKGbYcT0sy_IkpamNxvgrFxnfzLgNJvguoHSYNy0]--></g></svg>

<svg xmlns="http://www.w3.org/2000/svg" width="300" height="680" viewBox="0 0 300 680"><rect width="286" height="74.086" x="7" y="599.54" fill="#3D176E" rx="2.5" ry="2.5" style="stroke:#000d19;stroke-width:.5"/><circle cx="22" cy="619.434" r="11" fill="#ADD1B2" style="stroke:#181818;stroke-width:1"/><path d="M24.969 625.075q-.578.297-1.219.438-.64.156-1.344.156-2.5 0-3.828-1.64-1.312-1.657-1.312-4.782t1.312-4.781q1.328-1.657 3.828-1.657.703 0 1.344.157.656.156 1.219.453v2.719q-.625-.579-1.219-.844-.594-.281-1.219-.281-1.343 0-2.031 1.078-.687 1.062-.687 3.156t.687 3.172q.688 1.062 2.031 1.062.625 0 1.219-.265.594-.282 1.219-.86z"/><text x="41" y="625.32" fill="#D9B8FF" font-family="Helvetica" font-size="17" textLength="244">azure_available_service_alias</text><path d="M8 639.329h284" style="stroke:#000d19;stroke-width:.5"/><text x="18" y="661.324" fill="#D9B8FF" font-family="sans-serif" font-size="14" font-weight="bold" textLength="122">resource_name</text><text x="140" y="661.324" fill="#D9B8FF" font-family="sans-serif" font-size="14" textLength="48">: string</text><rect width="168" height="39.789" x="66" y="438.76" fill="#3D176E" rx="2.5" ry="2.5" style="stroke:#000d19;stroke-width:.5"/><circle cx="81" cy="458.654" r="11" fill="#ADD1B2" style="stroke:#181818;stroke-width:1"/><path d="M83.969 464.295q-.578.297-1.219.438-.64.156-1.344.156-2.5 0-3.828-1.64-1.312-1.657-1.312-4.782t1.312-4.781q1.328-1.656 3.828-1.656.703 0 1.344.156.656.156 1.219.453v2.719q-.625-.579-1.219-.844-.594-.281-1.219-.281-1.344 0-2.031 1.078-.687 1.062-.687 3.156t.687 3.172q.688 1.062 2.031 1.062.625 0 1.219-.265.594-.281 1.219-.86z"/><text x="100" y="464.54" fill="#D9B8FF" font-family="Helvetica" font-size="17" textLength="126">azure_resource</text><rect width="227" height="310.758" x="36.5" y="7" fill="#3D176E" rx="2.5" ry="2.5" style="stroke:#000d19;stroke-width:.5"/><circle cx="105.25" cy="26.895" r="11" fill="#ADD1B2" style="stroke:#181818;stroke-width:1"/><path d="M108.219 32.535q-.578.297-1.219.438-.64.156-1.344.156-2.5 0-3.828-1.64-1.312-1.657-1.312-4.782t1.312-4.781q1.328-1.656 3.828-1.656.703 0 1.344.156.656.156 1.219.453v2.719q-.625-.578-1.219-.844-.594-.281-1.219-.281-1.344 0-2.031 1.078-.687 1.062-.687 3.156t.687 3.172q.688 1.062 2.031 1.062.625 0 1.219-.265.594-.281 1.219-.86z"/><text x="130.75" y="32.78" fill="#D9B8FF" font-family="Helvetica" font-size="17" textLength="71">resource</text><path d="M37.5 46.789h225" style="stroke:#000d19;stroke-width:.5"/><text x="47.5" y="68.784" fill="#D9B8FF" font-family="sans-serif" font-size="14" font-weight="bold" textLength="29">age</text><text x="76.5" y="68.784" fill="#D9B8FF" font-family="sans-serif" font-size="14" textLength="66">: duration</text><text x="47.5" y="95.081" fill="#D9B8FF" font-family="sans-serif" font-size="14" font-weight="bold" textLength="43">atime</text><text x="90.5" y="95.081" fill="#D9B8FF" font-family="sans-serif" font-size="14" textLength="70">: datetime</text><text x="47.5" y="121.378" fill="#D9B8FF" font-family="sans-serif" font-size="14" font-weight="bold" textLength="43">ctime</text><text x="90.5" y="121.378" fill="#D9B8FF" font-family="sans-serif" font-size="14" textLength="70">: datetime</text><text x="47.5" y="147.675" fill="#D9B8FF" font-family="sans-serif" font-size="14" font-weight="bold" textLength="14">id</text><text x="61.5" y="147.675" fill="#D9B8FF" font-family="sans-serif" font-size="14" textLength="48">: string</text><text x="47.5" y="173.972" fill="#D9B8FF" font-family="sans-serif" font-size="14" font-weight="bold" textLength="33">kind</text><text x="80.5" y="173.972" fill="#D9B8FF" font-family="sans-serif" font-size="14" textLength="48">: string</text><text x="47.5" y="200.269" fill="#D9B8FF" font-family="sans-serif" font-size="14" font-weight="bold" textLength="90">last_access</text><text x="137.5" y="200.269" fill="#D9B8FF" font-family="sans-serif" font-size="14" textLength="66">: duration</text><text x="47.5" y="226.565" fill="#D9B8FF" font-family="sans-serif" font-size="14" font-weight="bold" textLength="90">last_update</text><text x="137.5" y="226.565" fill="#D9B8FF" font-family="sans-serif" font-size="14" textLength="66">: duration</text><text x="47.5" y="252.862" fill="#D9B8FF" font-family="sans-serif" font-size="14" font-weight="bold" textLength="48">mtime</text><text x="95.5" y="252.862" fill="#D9B8FF" font-family="sans-serif" font-size="14" textLength="70">: datetime</text><text x="47.5" y="279.159" fill="#D9B8FF" font-family="sans-serif" font-size="14" font-weight="bold" textLength="43">name</text><text x="90.5" y="279.159" fill="#D9B8FF" font-family="sans-serif" font-size="14" textLength="48">: string</text><text x="47.5" y="305.456" fill="#D9B8FF" font-family="sans-serif" font-size="14" font-weight="bold" textLength="34">tags</text><text x="81.5" y="305.456" fill="#D9B8FF" font-family="sans-serif" font-size="14" textLength="171">: dictionary[string, string]</text><path fill="none" d="M150 496.81v102.56m0-120.56-6 18h12zm0-142.97v102.83m0-120.83-6 18h12z" style="stroke:#ffaf37;stroke-width:2"/></svg>
